X:509
T: EIN GUCKGUCK WOLLT AUSFLIEGEN
N: E0483
O: Europa, Mitteleuropa, Deutschland
R: Liebes - Lied
M: 4/4
L: 1/4
K: F
F | FccA | c2c
c | AGAB | G2F
F | AGAB | c2G
G | AGAB | c2GG | F2z

@@@ Tune index: 4159
